mobile/apps/auth/assets/custom-icons/icons/laposte.svg

<svg width="500" height="500" viewBox="0 0 500 500" fill="none" xmlns="http://www.w3.org/2000/svg">
<path fill-rule="evenodd" clip-rule="evenodd" d="M113.22 144.994L222.135 194.471H388.952L402.763 170.591C411.046 156.238 401.045 139 385.937 139H114.404C113.68 138.996 112.977 139.244 112.417 139.702C111.857 140.16 111.474 140.799 111.333 141.508C111.193 142.218 111.305 142.954 111.65 143.591C111.994 144.227 112.549 144.723 113.22 144.994ZM222.135 215.71H493.862C495.344 215.723 496.773 216.267 497.888 217.244C499.003 218.22 499.731 219.563 499.939 221.03C500.147 222.497 499.821 223.99 499.021 225.237C498.222 226.485 497.001 227.404 495.58 227.828L3.93325 360.885C3.24581 361.078 2.51276 361.027 1.85828 360.742C1.20379 360.457 0.668087 359.954 0.341912 359.319C0.0157368 358.684 -0.0808603 357.956 0.0684733 357.258C0.217807 356.561 0.603887 355.936 1.16134 355.49L222.135 215.71ZM263.114 357.759L84.8044 360.999L331.309 294.317L309.928 331.432C300.673 347.471 280.41 357.435 263.114 357.759Z" fill="#003DA5"/>
</svg>

<svg xmlns="http://www.w3.org/2000/svg" fill="none" viewBox="0 0 500 500"><path fill="#003DA5" fill-rule="evenodd" d="m113.22 144.994 108.915 49.477h166.817l13.811-23.88c8.283-14.353-1.718-31.591-16.826-31.591H114.404a3.111 3.111 0 0 0-1.184 5.994Zm108.915 70.716h271.727a6.192 6.192 0 0 1 6.077 5.32 6.184 6.184 0 0 1-.918 4.207 6.184 6.184 0 0 1-3.441 2.591L3.933 360.885a3.1 3.1 0 0 1-3.591-1.566 3.094 3.094 0 0 1 .82-3.829l220.973-139.78Zm40.979 142.049-178.31 3.24 246.505-66.682-21.381 37.115c-9.255 16.039-29.518 26.003-46.814 26.327Z" clip-rule="evenodd"/></svg>
